src/assets/desktop/ico-live-nav.svg

<?xml version="1.0" encoding="UTF-8"?>
<svg width="28px" height="20px" viewBox="0 0 28 20" version="1.1" xmlns="http://www.w3.org/2000/svg" xmlns:xlink="http://www.w3.org/1999/xlink">
    <!-- Generator: Sketch 55.1 (78136) - https://sketchapp.com -->
    <title>noun_live feed_594409</title>
    <desc>Created with Sketch.</desc>
    <defs>
        <path d="M12.9809524,11.6656461 C11.5347739,11.6656461 10.3333333,10.5283363 10.3333333,9.11206369 C10.3333333,7.69579111 11.512525,6.55848132 12.9809524,6.55848132 C14.4493798,6.55848132 15.6285714,7.69579111 15.6285714,9.11206369 C15.6285714,10.5283363 14.4271309,11.6656461 12.9809524,11.6656461 Z M4.3047619,18.0036742 C4.53333333,17.7832211 4.53333333,17.4157991 4.3047619,17.1586038 C2.36190476,14.9173301 1.25714286,12.0881813 1.25714286,9.14880588 C1.25714286,6.1726883 2.4,3.27005511 4.45714286,1.02878138 C4.68571429,0.771586038 4.68571429,0.404164115 4.45714286,0.183710961 C4.34285714,0.0734843846 4.15238095,0 4,0 C3.80952381,0 3.65714286,0.0734843846 3.54285714,0.220453154 C1.25714286,2.68218004 0,5.87875077 0,9.18554807 C0,12.418861 1.21904762,15.5786895 3.42857143,18.0404164 C3.54285714,18.1873852 3.73333333,18.2608696 3.92380952,18.2608696 C4.03809524,18.1873852 4.19047619,18.1139008 4.3047619,18.0036742 Z M22.647619,17.8934476 C24.8190476,15.4317208 26,12.3453766 26,9.11206369 C26,5.84200857 24.7809524,2.68218004 22.5333333,0.220453154 C22.4190476,0.0734843846 22.2285714,7.10542736e-15 22.0380952,7.10542736e-15 C21.847619,7.10542736e-15 21.6952381,0.0734843846 21.5809524,0.183710961 C21.352381,0.404164115 21.3142857,0.771586038 21.5809524,1.02878138 C23.6,3.27005511 24.7047619,6.13594611 24.7047619,9.07532149 C24.7047619,11.9779547 23.6380952,14.8071035 21.6571429,17.011635 C21.4285714,17.2688304 21.4285714,17.6362523 21.6952381,17.8567055 C21.8095238,17.966932 22,18.0404164 22.152381,18.0404164 C22.3428571,18.1139008 22.4952381,18.0404164 22.647619,17.8934476 Z M19.2952381,14.5866503 C20.552381,13.0067361 21.2380952,11.1328843 21.2380952,9.14880588 C21.2380952,7.1279853 20.5142857,5.14390692 19.1809524,3.56399265 C19.0666667,3.41702388 18.8761905,3.3435395 18.6857143,3.3435395 C18.4952381,3.3435395 18.3428571,3.41702388 18.2285714,3.52725046 C18,3.74770361 17.9619048,4.11512554 18.152381,4.33557869 C19.2952381,5.6950398 19.9428571,7.42192284 19.9428571,9.14880588 C19.9428571,10.8756889 19.3714286,12.4923454 18.2666667,13.8518065 C18.0761905,14.0722596 18.1142857,14.4396816 18.3428571,14.6601347 C18.4571429,14.7703613 18.647619,14.8438457 18.8,14.8438457 C18.9904762,14.8438457 19.1809524,14.7336191 19.2952381,14.5866503 Z M7.65714286,14.6968769 C7.88571429,14.4764238 7.92380952,14.1090018 7.73333333,13.8885487 C6.62857143,12.5290876 6.01904762,10.8756889 6.01904762,9.14880588 C6.01904762,7.38518065 6.66666667,5.65829761 7.84761905,4.2620943 C8.03809524,4.04164115 8.03809524,3.67421923 7.80952381,3.45376607 C7.6952381,3.3435395 7.5047619,3.27005511 7.35238095,3.27005511 C7.16190476,3.27005511 6.97142857,3.3435395 6.85714286,3.49050827 C5.44761905,5.07042254 4.68571429,7.09124311 4.68571429,9.14880588 C4.68571429,11.1696265 5.37142857,13.0802205 6.66666667,14.6601347 C6.78095238,14.8071035 6.97142857,14.9173301 7.16190476,14.9173301 C7.35238095,14.8805879 7.54285714,14.8071035 7.65714286,14.6968769 Z" id="path-1"></path>
    </defs>
    <g id="Page-1" stroke="none" stroke-width="1" fill="none" fill-rule="evenodd">
        <g id="R1-V4-Desktop-Flypout-Programm" transform="translate(-918.000000, -164.000000)" fill-rule="nonzero" stroke="#FFFFFF">
            <g id="Group-10">
                <g id="Group-9">
                    <g id="Group-7" transform="translate(0.000000, 134.000000)">
                        <g id="BTN-hören" transform="translate(901.000000, 18.000000)">
                            <g id="noun_live-feed_594409" transform="translate(18.000000, 13.000000)">
                                <g id="Shape">
                                    <use fill="#FFFFFF" xlink:href="#path-1"></use>
                                    <use xlink:href="#path-1"></use>
                                    <use xlink:href="#path-1"></use>
                                    <use xlink:href="#path-1"></use>
                                </g>
                            </g>
                        </g>
                    </g>
                </g>
            </g>
        </g>
    </g>
</svg>

<svg width="28px" height="20px" xmlns="http://www.w3.org/2000/svg" xmlns:xlink="http://www.w3.org/1999/xlink"><defs><path d="M12.981 11.6656c-1.4462 0-2.6477-1.1373-2.6477-2.5535 0-1.4163 1.1792-2.5536 2.6477-2.5536 1.4684 0 2.6476 1.1373 2.6476 2.5536 0 1.4162-1.2015 2.5535-2.6476 2.5535zm-8.6762 6.338c.2285-.2204.2285-.5878 0-.845-1.9429-2.2413-3.0477-5.0704-3.0477-8.0098 0-2.9761 1.1429-5.8787 3.2-8.12.2286-.2572.2286-.6246 0-.845C4.343.0734 4.1524 0 4 0c-.1905 0-.3429.0735-.4571.2205C1.257 2.6822 0 5.8788 0 9.1855c0 3.2334 1.219 6.3932 3.4286 8.855.1143.1469.3047.2204.4952.2204.1143-.0735.2667-.147.381-.2572zm18.3428-.1102C24.819 15.4317 26 12.3454 26 9.1121c0-3.27-1.219-6.43-3.4667-8.8916C22.419.0735 22.2286 0 22.0381 0c-.1905 0-.3429.0735-.4571.1837-.2286.2205-.2667.5879 0 .845 2.019 2.2414 3.1238 5.1072 3.1238 8.0466 0 2.9027-1.0667 5.7318-3.0477 7.9363-.2285.2572-.2285.6247.0381.8451.1143.1102.3048.1837.4572.1837.1905.0735.3428 0 .4952-.147zm-3.3524-3.3067c1.2572-1.58 1.9429-3.4538 1.9429-5.4379 0-2.0208-.7238-4.0049-2.0571-5.5848-.1143-.147-.3048-.2205-.4953-.2205s-.3428.0735-.4571.1838c-.2286.2204-.2667.5878-.0762.8083 1.1428 1.3594 1.7905 3.0863 1.7905 4.8132s-.5715 3.3435-1.6762 4.703c-.1905.2205-.1524.5879.0762.8083.1142.1103.3047.1837.4571.1837.1905 0 .381-.1102.4952-.2571zm-11.638.1102c.2285-.2205.2666-.5879.0761-.8084-1.1047-1.3594-1.7143-3.0128-1.7143-4.7397 0-1.7636.6477-3.4905 1.8286-4.8867.1905-.2205.1905-.5879-.038-.8083-.1144-.1103-.3048-.1837-.4572-.1837-.1905 0-.381.0734-.4953.2204-1.4095 1.58-2.1714 3.6007-2.1714 5.6583 0 2.0208.6857 3.9314 1.981 5.5113.1143.147.3047.2572.4952.2572.1905-.0367.381-.1102.4952-.2204z" id="a"/></defs><g transform="translate(1 1)" fill-rule="nonzero" stroke="#FFF" fill="none"><use fill="#FFF" xlink:href="#a"/><use xlink:href="#a"/><use xlink:href="#a"/><use xlink:href="#a"/></g></svg>
